Catalina-light/actions/22/media-optical-video-new.svg

<svg viewBox="0 0 22 22" xmlns="http://www.w3.org/2000/svg">
<defs>
<style id="current-color-scheme" type="text/css">.ColorScheme-Text {
        color:#4d4d4d
      }</style>
</defs>
<path class="ColorScheme-Text" d="m11 3c-4.432 0-8 3.568-8 8s3.568 8 8 8 8-3.568 8-8-3.568-8-8-8zm3.0723 6c0.37258 0 0.67578 0.30125 0.67578 0.67383s-0.30319 0.67578-0.67578 0.67578c-0.37258 0-0.67383-0.3032-0.67383-0.67578s0.30124-0.67383 0.67383-0.67383zm1.541 0c0.37252 0 0.67578 0.30125 0.67578 0.67383s-0.30326 0.67578-0.67578 0.67578c-0.37256 0-0.67383-0.3032-0.67383-0.67578s0.30127-0.67383 0.67383-0.67383zm-4.6133 1c0.554 0 1 0.446 1 1s-0.446 1-1 1-1-0.446-1-1 0.446-1 1-1zm2.6504 0.58984h2.3848c0.13891 0 0.25 0.13863 0.25 0.31055v0.27734c8.96e-4 0.017998 0.016697 0.085133 0.19531 0.023438l0.98242-0.33984c0.030642-0.012194 0.097642-0.026454 0.097656 0.074219v1.7148c0 0.075195-0.041484 0.077893-0.078125 0.066406l-1.0156-0.24219c-0.16623-0.039442-0.18088 0.010706-0.18164 0.025391v0.18945c0 0.17185-0.11109 0.31055-0.25 0.31055h-2.3848c-0.13884 0-0.25195-0.1387-0.25195-0.31055v-1.7891c0-0.17191 0.11311-0.31055 0.25195-0.31055z" fill="currentColor"/>
</svg>

<svg xmlns="http://www.w3.org/2000/svg" viewBox="0 0 22 22">
  <defs id="defs3051">
    <style type="text/css" id="current-color-scheme">
      .ColorScheme-Text {
        color:#4d4d4d
      }
      </style>
  </defs>
 <path 
     style="fill:currentColor;fill-opacity:1;stroke:none"      
	 class="ColorScheme-Text"
        d="M 11 3 C 6.568 3 3 6.568 3 11 C 3 15.432 6.568 19 11 19 C 15.432 19 19 15.432 19 11 C 19 6.568 15.432 3 11 3 z M 14.072266 9 C 14.444848 9 14.748047 9.3012453 14.748047 9.6738281 C 14.748047 10.046411 14.444855 10.349609 14.072266 10.349609 C 13.699683 10.349609 13.398437 10.046411 13.398438 9.6738281 C 13.398438 9.3012453 13.699683 9 14.072266 9 z M 15.613281 9 C 15.985797 9 16.289062 9.3012453 16.289062 9.6738281 C 16.289062 10.046411 15.985797 10.349609 15.613281 10.349609 C 15.240725 10.349609 14.939453 10.046411 14.939453 9.6738281 C 14.939453 9.3012453 15.240725 9 15.613281 9 z M 11 10 C 11.553999 10 12 10.446001 12 11 C 12 11.553999 11.553999 12 11 12 C 10.446001 12 10 11.553999 10 11 C 10 10.446001 10.446001 10 11 10 z M 13.650391 10.589844 L 16.035156 10.589844 C 16.174067 10.589844 16.285156 10.728474 16.285156 10.900391 L 16.285156 11.177734 C 16.286052 11.195732 16.301853 11.262867 16.480469 11.201172 L 17.462891 10.861328 C 17.493533 10.849134 17.560533 10.834874 17.560547 10.935547 L 17.560547 12.650391 C 17.560547 12.725586 17.519063 12.728284 17.482422 12.716797 L 16.466797 12.474609 C 16.300563 12.435167 16.285917 12.485315 16.285156 12.5 L 16.285156 12.689453 C 16.285156 12.861302 16.174067 13 16.035156 13 L 13.650391 13 C 13.511547 13 13.398438 12.861302 13.398438 12.689453 L 13.398438 10.900391 C 13.398438 10.728481 13.511547 10.589844 13.650391 10.589844 z "
     />
</svg>
